X: 100
T: Piano Sonata no. 31 in A\b major, Adagio ma non troppo
C: Ludwig van Beethoven
%%abc-version 2.0
%%abcx-abcm2ps-target-version 5.9.1 (29 Sep 2008)
%%abc-creator hum2abc beta
%%abcx-conversion-date 2021/01/11 11:42:11
%%abc-edited-by Craig Stuart Sapp
%%abcx-initial-encoding-date 2008/10/28/
%%gracespace 0 6 6
%%humdrum-veritas 4222449104
%%humdrum-veritas-data 4203526448
%%linebreak <none>
%%barnumbers 0
L: 1/16
M: 4/4
Q: "Adagio ma non troppo" 1/4=60
%%staves {1 2}
V: 1 clef=treble
V: 2 clef=bass
K: Db
[V:1] [d2f2]>>[d2f2]z8e4 & z4[e2g2][C2E2G2=A2] [D2F2B2][=d2f2] [e2a2]g2 | 
[V:2] [B,,,2B,,2]>>[B,,,2B,,2] [B,,,2B,,2][B,,,2B,,2][B,,,8B,,8] | 
[V:1] [e4g4][_c4a4][_C4D4][B,4D4_F4] | 
[V:2] [_C,,4_C,4][_F,,4_F,4][G,,8G,8] | 
[V:1] E4[A,2B,2_F2]_f2z8 & [B,2D2]_C2z4z2 [A,2B,2] z2 [=G,2B,2E2] | 
[V:2] [=G,,2=G,2][A,,2A,2][D,,4D,4][E,,4E,4]E,,4 | 
[V:1] [M:7/4]z2 (3:2:6=G,/B,/D/E/=G/B/d4-d2>B2 A2G2- GB/d/ _f/eB/ d_c z2z4 | 
[V:2] [M:7/4](5:4:5E,,/=G,,/B,,/D,/E,/ z2z4z8z4z2 [A,2C2][F,2__B,2][E,2G,2B,2] & z4z4z8z4[A,2_C2] [_F,,2_F,2][D,,2D,2][_C,,2_C,2] | 
[V:1] [M:4/4]=A< =a a-a a-a a>- a a/a/ a/-a/ a/a/ a/a/ a/-a/ z3 | 
[V:2] [M:4/4][=B,,16^D,16^F,16=A,16] | 
[V:1]  [K:E] [M:17/16]a/-a/ a/-a/ a/-a/ a/-a/ a/-a/- a2f2 d2A2 (3c2B2A2 | 
[V:2]  [K:E] [M:17/16][B,,16D,16F,16B,16]z | 
[V:1]  [K:Gb] [M:5/4]^G2=e4=G2c4.B2.A2 =G3 A | 
[V:2]  [K:Gb] [M:5/4][=E,4^G,4=B,4][D,4=E,4=G,4_B,4][=D,4F,4A,4C4]z4z4 | 
[V:1] [M:12/16]A3 E2> E2EE EEE | 
[V:2] [M:12/16]z6E,E,E, E,E,E, | 
[V:1] [CE][CE][CE] [CE][CE][CE] [A,CE][A,CE][A,CE] [A,CE][A,CE][A,CE] | 
[V:2] [C,E,][C,E,][C,E,] [C,E,][C,E,][C,E,] [A,,C,E,][A,,C,E,][A,,C,E,] [A,,C,E,][A,,C,E,][A,,C,E,] | 
[V:1] e3- e2d- d2c BcA | 
[V:2] [A,,C,E,][A,,C,E,][A,,C,E,] [A,,C,E,][A,,C,E,][A,,C,E,] [A,,C,E,][A,,C,E,][A,,C,E,] [A,,C,E,][A,,C,E,][A,,C,E,] | 
[V:1] A3=G3- G2_f- f2e | 
[V:2] [B,,D,E,][B,,D,E,][B,,D,E,] [B,,D,E,][B,,D,E,][B,,D,E,] [B,,D,E,][B,,D,E,][B,,D,E,] [B,,D,E,][B,,D,E,][B,,D,E,=G,] | 
[V:1] e2a- a2g- g2_f e2d | 
[V:2] [C,E,A,][C,E,A,][C,E,A,] [=C,E,A,][C,E,A,][C,E,A,] [D,_F,A,][D,F,A,][D,F,A,] [F,A,D][F,A,D][F,A,D] | 
[V:1] c2>- c2de/d//c// B2>- B2cd | 
[V:2] [E,A,C][E,A,C][E,A,C] [E,A,C][E,A,C][E,A,C] [E,=G,B,][E,G,B,][E,G,B,] [D,E,G,B,][C,E,A,][B,,E,G,] | 
[V:1] c6d6 | 
[V:2] [A,,E,A,][A,,C,E,][A,,C,E,] [A,,C,E,][A,,C,E,][A,,C,E,] [G,,C,_F,][G,,C,F,][G,,C,F,] [G,,B,,F,][G,,B,,F,][G,,B,,F,] | 
[V:1] e6_f3a3 | 
[V:2] [G,,C,E,][G,,C,E,][G,,C,E,] [C,G,C][C,G,C][C,G,C] [D,_F,C][D,F,C][D,F,C] [D,F,B,][D,F,B,][D,F,B,] | 
[V:1] g2c' a2a'- a'2g'- g'e'_f'/b/ | 
[V:2] [E,G,C][E,G,C][E,G,C] [_F,C_F][F,CF][F,CF] [G,CE][G,CE][G,CE] [G,B,DF][G,B,DF][G,B,DF] | 
[V:1] d'6c'3 e3- | 
[V:2] [=G,B,D_F][G,B,DF][G,B,DF] [_G,B,DF][G,B,DF][G,B,DG][K:clef=treble] [CEG][CEG][CEG] [CEG][CEG][CEG] | 
[V:1] e3__B3A3 g2e | 
[V:2] [=CEG][CEG][CEG] [CEG][CEG][CEG] [CEG][CEG][CEG] [CEGA][CEGA][CEGA] | 
[V:1] g3_f3- f3e3- & z2> z2 AA AAA AAA | 
[V:2] [D_FA][DFA][DFA] [DFA][K:clef=bass][D,A,D][D,A,D] [D,A,D][D,A,D][D,A,D] [E,A,C][E,A,C][E,A,C] | 
[V:1] e2d- d2c- c2B- BcA & AAA AAAz6 | 
[V:2] [_F,A,D][F,A,D][F,A,D] [E,A,C][E,A,C][E,A,C] [D,F,B,][D,F,B,][D,F,B,] [=D,=F,B,][D,F,C][D,F,C] | 
[V:1] A6=G3E3 | 
[V:2] [E,A,C][E,A,C][E,A,C] [E,C=D][E,CD][E,CD] [E,B,E]E,E, E,E,[D,E,] | 
[V:1] A6=G6 & z =DD DEE2< _F2E3- | 
[V:2] [C,E,][C,E,][C,E,] [C,E,][C,E,][C,E,] [B,,E,][B,,E,][B,,E,] [B,,E,][B,,E,][B,,E,] | 
[V:1] c6B3=c3 & E=DD DEE _F2E A2E | 
[V:2] [A,,E,][A,,E,][A,,E,] [A,,E,][A,,E,][A,,E,] [G,,E,][G,,E,][G,,E,] [G,,E,][G,,E,][G,A,] | 
[V:1] d2>- d2e_f- f2e- e2=G & AAA AAAz6 | 
[V:2] [_F,A,][F,A,D][F,A,D] [F,A,D][E,A,=C][D,A,D] [E,A,_C][E,A,C][E,A,C] [E,=G,B,D][E,G,B,D][E,G,B,D] | 
[V:1] B6A6[K:clef=bass] & z2 z EEE2< E2 C3 | 
[V:2] [_F,=G,B,D][F,G,B,D][F,G,B,D] [E,G,B,D][E,G,B,D][E,2G,2B,2D2]< [A,2C2] [C,,3C,3] | 
[V:1] B,3[E,3E3]A,2 z A, z z | 
[V:2] [B,,,3B,,3]E,,3[A,,,2A,,2] z [A,,,A,,] z z | 
[V:1] !fermata!A,6 | 
[V:2] !fermata![A,,,6A,,6] | 
[V:1]  [K:Ab] [K:clef=treble][M:6/8]z4z2 [I:setbarnb 28]| 
[V:2]  [K:Ab] [M:6/8]A,6 | 
[V:1] z12 | 
[V:2] D6B,6 | 
[V:1] z12 | 
[V:2] E6C6 | 
[V:1] z12 | 
[V:2] F6E4D2 | 
[V:1] z4z2E6 | 
[V:2] C4>-C4A,2G,2 | 
[V:1] A6F6 | 
[V:2] F,2G,2E,2 =D,2E,2F,2 | 
[V:1] B6G6 | 
[V:2] G,2A,2F,2 =E,2F,2G,2 | 
[V:1] c6B4A2 | 
[V:2] A,2G,2A,2 B,2C2=D2 | 
[V:1] G6B6- | 
[V:2] E2F2=D2 E2F2_D2 | 
[V:1] B6A4_G2 | 
[V:2] C2E2D2 C2D2E2- | 
[V:1] z4z2A6 & F4>-F4=D2E2 | 
[V:2] E2C2D2- D2=B,2C2- | 
[V:1] d6B6 & F2B2A2- A2F2=G2- | 
[V:2] C2B,2C2E4D2 | 
[V:1] e6c6 & G2c2B2- B2G2=A2- | 
[V:2] C4C,2F,4E,2 | 
[V:1] f6e4d2 & A2B2A2 G2A2B2 | 
[V:2] D,4=D,2 E,2F,2G,2 | 
[V:1] c6e6- & E4>c4d2B2 | 
[V:2] A,2C2B,2 A,2B,2G,2 | 
[V:1] e6d4c2 & A2c2B2 A2G2A2 | 
[V:2] F,2A,2G,2 F,2=E,2F,2 | 
[V:1] B6d6- & =E2G2F2 B2c2A2 | 
[V:2] G,2B,2A,2 G,2A,2F,2 | 
[V:1] d6c4B2 & G2B2A2 G2F2G2- | 
[V:2] =E,2G,2F,2 E,2=D,2E,2 | 
[V:1] A4B2G4A2 & G2C2F2- F2E2F2 | 
[V:2] F,2E,2=D,2 E,2C,2A,,2 | 
[V:1] F4EF- F2E2_D2 & E2=D2A,2G,6 | 
[V:2] =A,,2B,,4[E,,6E,6] | 
[V:1] C2 B2G2A6 & C2D2B,2 A,2B,2C2 | 
[V:2] [A,,6A,6][F,,6F,6] | 
[V:1] G6B6- & D2E2C2 B,2C2D2 | 
[V:2] [B,,6B,6][G,,6G,6] | 
[V:1] E2G2A2- A2B2c2- & B2E4=D6 | 
[V:2] [C,6C6][B,,4B,4][A,,2A,2] | 
[V:1] c2=A2B2 E2F2G2 & E6D6- | 
[V:2] [G,,6G,6][B,,6B,6]- | 
[V:1] A2F2G2- G2A2B2- & D6C6 | 
[V:2] [B,,6B,6][A,,4A,4][_G,,2_G,2] | 
[V:1] B2=G2A2- A2B2A2- & D6=D6 | 
[V:2] [F,,4F,4]>-[F,,4F,4]_G,2F,2- | 
[V:1] A2F2_G2- G2A2G2- & E6B,4C2 | 
[V:2] F,2=D,2E,2- E,2F,2E,2- | 
[V:1] G2=E2F2- F2=D2_E2 & D2 z2 z2A,6 | 
[V:2] E,2C,2D,2- D,2=B,,2C,2 | 
[V:1] =G2A2F2 E2F2G2 & D6B,6 | 
[V:2] B,,2C,2A,,2 =G,,2A,,2B,,2 | 
[V:1] A2B2_G2 F2=G2=A2 & E6C6 | 
[V:2] C,2D,2B,,2 =A,,2B,,2C,2 | 
[V:1] B4A2 G2A2B2- & F6E4D2 | 
[V:2] D,2C,2=D,2 E,2F,2G,2 | 
[V:1] B6A6- & C6D4C2 | 
[V:2] A,2B,2G,2 F,2=E,2F,2 | 
[V:1] A6G6- & B,6C4B,2 | 
[V:2] G,2A,2F,2 =E,2=D,2E,2 | 
[V:1] G2A2G2 F2=E2F2 | 
[V:2] A,6B,4A,2 & F,4E,2D,4C,2 | 
[V:1] G2A2F2- F2=D2=E2 | 
[V:2] G,6A,4G,2 & B,,4=B,,2C,4_B,,2 | 
[V:1] F2_G2E2 D2C2D2- | 
[V:2] C6F,6 & A,,4=A,,2B,,4_A,,2 | 
[V:1] D2C2B,2E6 & z4E2 A,2G,2B,2 | 
[V:2] E,6z6 & G,,2A,,2G,,2 F,,2E,,2D,,2 | 
[V:1] A6F6 & E2F2D2 C2D2E2 | 
[V:2] C,,2D,,2B,,,2 =A,,,2B,,,2C,,2 | 
[V:1] B6=G6 & F2_G2E2 D2E2F2 | 
[V:2] D,,2E,,2C,,2 B,,,2C,,2D,,2- | 
[V:1] c6B4A2 & E2A4-A2=D2F2 | 
[V:2] D,,2C,,2E,,2 D,,2F,,2=D,,2 | 
[V:1] G6d6- & B,6B6 | 
[V:2] E,,2G,,2F,,2 E,,2=D,,2E,,2 | 
[V:1] d6c4B2 & G2B2A2 G2F2G2 | 
[V:2] =E,,2G,,2F,,2 E,,2=D,,2E,,2 | 
[V:1] =A6e6- & C2c2B2 A2B2c2 | 
[V:2] F,,2=A,,2G,,2 F,,2G,,2A,,2 | 
[V:1] e6=d4c2 & =A2c2.B2 A2B2^F2 | 
[V:2] ^F,,2=A,,2G,,2 F,,2G,,2A,,2 | 
[V:1] =B4z2a6- & =D2=f2e2 =d2e2f2 | 
[V:2] G,,2=D,2C,2 =B,,2C,2D,2 | 
[V:1] a6g4f2 & =B2c2=d2 e2f2d2 | 
[V:2] =D,2E,2F,2z4z2 | 
[V:1] e6f4=d2 & G2c2B2 A2G2F2 | 
[V:2] z12 | 
[V:1] e6=d6- & G2=B2c2- c2=A2B2 | 
[V:2] [G,,,12G,,12] | 
[V:1] d2e2c2- c2=d2e2- & E6F6- | 
[V:2] [C,,6C,6][=A,,,6=A,,6] | 
[V:1] e2f2e2 =d2e2f2 & F6G6- | 
[V:2] [=D,,6=D,6][=B,,,6=B,,6] | 
[V:1] g4z2z4z2 & G2A2F2 E2F2G2- | 
[V:2] [E,,6E,6][C,,6C,6] | 
[V:1] z12 & G2A2G2 F2G2A2 | 
[V:2] [F,,6F,6][=D,,6=D,6] | 
[V:1] a2b2g2- g2=a2b2- & B6c6 | 
[V:2] [G,,6G,6][=E,,6=E,6] | 
[V:1] b2c'2b2 =a2b2c'2 & c6e6- | 
[V:2] [=A,,4=A,4][G,,2G,2] [F,,2F,2][G,,2G,2][A,,2A,2] | 
[V:1] d'4z2f6- & e2d2B2- B2=A2c2- | 
[V:2] [B,,6B,6][C,6C6] | 
[V:1] f6=A4c2 & c2B2d2F6- | 
[V:2] [D,4D4]>C4D2E2- | 
[V:1] B4d2c4e2 & F12- | 
[V:2] E2D2B,2- B,2=A,2C2- | 
[V:1] d4f2e6- & F4>B4c2d2 | 
[V:2] C2B,2D2 G,2A,2B,2- | 
[V:1] e12- & c4A2G4B2 | 
[V:2] B,2A,2C2- C2B,2D2- | 
[V:1] e6G4B2 & A4c2E6- | 
[V:2] D2C2E2 B,2C2D2- | 
[V:1] A4c2B4d2 & E12- | 
[V:2] D2C2A,2- A,2G,2B,2- | 
[V:1] c2d2e2f4z2 & E2B2c2D6 | 
[V:2] B,2A,2_G,2 F,2=E,2F,2 | 
[V:1] _G6E6 & z2 z2 B,2- B,2A,2C2- | 
[V:2] E,2F,2D,2- D,2C,2_G,2- | 
[V:1] A6F6 & C2D2E2- E2D2=D2 | 
[V:2] G,2F,2E,2 D,2B,2A,2 | 
[V:1] B6A4G2 & E2_G2F2 E2F2C2 | 
[V:2] _G,2E,2D,2 C,2D,2E,2 | 
[V:1] F2_G2F2- F2=D2E2 & D4A,2A6 | 
[V:2] D,2E,2D,2- D,2=B,,2C,2- | 
[V:1] d6B6 & F6=G6 | 
[V:2] C,2B,,2D,2 E,2F,2D,2 | 
[V:1] e6c6 & A2c2B2- B2A2_G2 | 
[V:2] C,2A,,2 z2A,6 | 
[V:1] f6e4d2 & F2B2A2 =G2A2B2- | 
[V:2] D6B,6 | 
[V:1] c4e2d4c2 & B2A2G2 F2G2A2- | 
[V:2] E4C2- C2B,2A,2 | 
[V:1] B4d2c4B2 & A2G2F2 =E2F2G2- | 
[V:2] G,2A,2B,2 C2=D,2=E,2 | 
[V:1] A4c2B4A2 & G2F2E2 =D2E2F2 | 
[V:2] F,2G,2A,2 B,2C,2=D,2 | 
[V:1] G2c2B2 A2B2c2- & B,2E2G2F4E2 | 
[V:2] [E,,4E,4][E,,2-E,2][E,,6E,6]- | 
[V:1] c2B2A2 G2A2B2- & =D4F2E4_D2 | 
[V:2] [E,,4E,4][E,,2E,2]-[E,,6E,6]- | 
[V:1] B2A2_G2-G4G2- & C4B,2=A,6 | 
[V:2] [E,,4E,4][E,,2E,2]- [E,,2E,2].[D,,2D,2].[C,,2C,2] | 
[V:1] G4F2- F2E2D2 & D6z6 | 
[V:2] .[B,,,2B,,2].[C,,2C,2].[D,,2D,2]=G,6 & z6[E,,,6E,,6] | 
[V:1] D2=B,2C2- C2D2E2- & z4>=A,4_B,2C2 | 
[V:2] E,6z6 & [A,,,6A,,6][F,,,6F,,6] | 
[V:1] E2C2D2- D2B,2E2- | 
[V:2] F,6E,6 & [B,,,6B,,6][G,,,6G,,6] | 
[V:1] E2=D2C2 D2E2F2- | 
[V:2] A,6F,6 & [C,,6C,6][B,,,4B,,4][A,,,2A,,2] | 
[V:1] F2E4A6 & B,4D2- D2C2E2 | 
[V:2] [G,,,6G,,6][_G,,,6_G,,6] | 
[V:1] d6B6 & D2B2A2 G2F2G2- | 
[V:2] [F,,,4F,,4][_F,,,2_F,,2][E,,,4E,,4][D,,,2D,,2] | 
[V:1] e4c2f4d2 & G2B2A2 G2F2B2 | 
[V:2] [C,,,4C,,4][A,,2A,2][D,4D4][B,,2B,2] | 
[V:1] g4e2 a2g2.f2- & A2G2c2- c2e2.d2- | 
[V:2] [E,4E4][C,2C2][F,4F4][G,2G2] | 
[V:1] f2e2.d2 c2d2.B2 & d2c2[G2B2] A2[F2A2]A2 | 
[V:2] [A,4A4][=E,2=E2] [F,2F2][D,2D2][=D,2=D2] | 
[V:1] [G4B4]>{/=A2B2} [G4B4d4]B2G2 | 
[V:2] [E,6E6][E,,4E,4]z2 | 
[V:1] D2B,2G,2z4z2 | 
[V:2] z4z2 D,2B,,2G,,2 | 
[V:1] z4z2z6 | 
[V:2] E,,2G,,2B,,2 D,2G,2B,2 & z6z4z2 | 
[V:1] D2G2B2[D6G6B6d6]- | 
[V:2] z4z2[E,,6E,6]- | 
[V:1] [M:12/16][D6G6B6d6][=DGB=d]BG DB,G, | 
[V:2] [M:12/16][E,,6E,6][=D,,3=D,3] z3 | 
[V:1] z2> z2 [D,G,=D][D,G,D] [D,G,D][D,G,B,D][G,B,D] [G,B,D][G,B,D][G,B,D] | 
[V:2] =D,B,,G,, =D,,[B,,,D,,B,,][B,,,D,,B,,] [B,,,D,,B,,][G,,,D,,G,,][G,,B,,D,] [G,,B,,D,][G,,B,,D,][G,,B,,D,] | 
[V:1]  [K:Bb] {/D} d3- d2c cB z/ A/ AB z/ G/ | 
[V:2]  [K:Bb] [G,,B,,D,][G,,B,,D,][G,,B,,D,] [G,,B,,D,][G,,B,,D,][G,,B,,D,] [G,,B,,D,][G,,B,,D,][G,,B,,D,] [G,,B,,D,][G,,B,,D,][G,,B,,D,] | 
[V:1] G2^F- F2e z e=f/e/ z de/d/ | 
[V:2] [=A,,C,D,][A,,C,D,^F,][A,,C,D,F,] [A,,C,D,F,][A,,C,D,F,][A,,C,D,F,] [A,,C,D,F,][A,,C,D,F,][A,,C,D,F,] [A,,C,D,F,][A,,C,D,F,][A,,C,D,F,] | 
[V:1] d2g- ggf z fe z dc- | 
[V:2] [B,,D,G,][B,,D,G,][B,,D,G,] [=B,,D,G,][B,,D,G,][B,,D,G,] [C,E,G,][C,E,G,][C,E,G,] [E,G,C][E,G,C][E,G,C] | 
[V:1] cBc/d/ z dc/B/ B3A3 | 
[V:2] [D,G,B,][D,G,B,][D,G,B,] [D,G,B,][D,G,B,][D,G,B,] [D,G,B,][D,G,B,][D,G,B,] [D,^F,A,][D,F,A,][D,F,A,] | 
[V:1] B2>- B2A.B/ z/ c2>- c2=B.c/ z/ | 
[V:2] [G,,B,,D,G,][G,,B,,D,G,][G,,B,,D,G,] [G,,B,,E,][G,,B,,E,][G,,B,,E,] [=F,,B,,E,][F,,B,,E,][F,,B,,E,] [F,,A,,E,][F,,A,,E,][F,,A,,E,] | 
[V:1] d2>- d2^c.d z de z ^fg | 
[V:2] [F,,B,,D,][F,,B,,D,][F,,B,,D,] [F,,_A,,B,,D,][F,,A,,B,,D,][F,,A,,B,,D,] [G,,B,,E,][G,,B,,E,][G,,B,,E,] [E,,B,,E,][E,,B,,E,][E,,B,,E,] | 
[V:1] z g/=f/b- ba/g/g'- g'f'd z> fe/A/ | 
[V:2] [D,,B,,D,][D,,B,,D,][D,,B,,D,] [E,,B,,E,][E,,B,,E,][E,,B,,E,] [F,,B,,D,][F,,B,,D,][F,,B,,D,] [_G,,C,E,][G,,C,E,][G,,C,E,_G,] | 
[V:1] {/A}=c6B3d3 | 
[V:2] [_G,,C,E,_G,][G,,C,E,G,][F,,C,E,F,] [F,,C,E,F,][F,,A,,C,E,][F,,A,,C,E,] [F,,B,,D,][B,,D,F,][B,,D,F,] [B,,D,F,][B,,D,F,][B,,D,F,] | 
[V:1] d2-d z2 _A- A2G f2d | 
[V:2] [_A,,=B,,D,F,][A,,B,,D,F,][A,,B,,D,F,] [G,,B,,D,F,][G,,B,,D,F,][C,D,F,_A,] [B,,D,G,][B,,D,F,G,][B,,D,F,G,] [B,,D,F,G,][B,,D,F,G,][B,,D,F,G,] | 
[V:1] {/d} f2e2<- e2- ee-e z d-d | 
[V:2] [C,E,G,][C,E,G,][C,E,G,] [C,E,G,][C,^F,=A,][C,F,A,] [C,F,A,][C,F,A,][C,F,A,] [B,,G,B,][B,,G,B,][B,,G,B,] | 
[V:1] z c-c z B-B z _A-A z G-G | 
[V:2] [A,,^F,A,][A,,F,A,][A,,F,A,] [G,,D,G,][G,,D,G,][G,,D,G,] [C,E,_A,][C,E,A,][C,E,A,] [^C,=E,G,B,][C,E,G,B,][C,E,G,B,] | 
[V:1] G2B- B=AG- G2^F z z D | 
[V:2] [D,G,B,][D,G,B,][D,G,B,] [D,=E,G,^C][D,E,G,C][D,E,G,C] [D,E,B,C][D,E,B,C][D,^F,A,D] [D,F,A,D]D,[=C,D,] | 
[V:1] G3- G2G ^FzF z z D | 
[V:2] [B,,D,][B,,E,][B,,E,] [B,,E,][B,,D,][B,,D,] [A,,D,][A,,D,][A,,D,] [A,,D,][A,,D,][A,,D,] | 
[V:1] B3- B2B AzA z z =B | 
[V:2] [G,,D,][G,,E,][G,,E,] [G,,E,][G,,D,][G,,D,] [G,,D,][^F,,D,][F,,D,] [F,,D,][=F,,G,,D,][F,,G,,D,] | 
[V:1] z z =B/c/ z z f/e/ z z e/d/ z z G/^F/ | 
[V:2] [F,,G,,D,][E,,G,,C,][E,,G,,C,] [E,,G,,C,][C,G,C][C,G,C] [C,G,C][D,G,B,][D,G,B,] [D,G,B,][D,A,C][E,A,C] | 
[V:1] z z ^F2< A2 G2 z z z[K:clef=bass] B, & z2> z2 DE/D/ D2 z z3 | 
[V:2] [E,A,C][E,A,C][E,A,C] [D,^F,C][D,F,C][D,F,C] [G,2B,2] z z z [B,,,B,,] | 
[V:1] z z A, z z D z z [G,=B,] z z [D,G,B,] | 
[V:2] z z [A,,,A,,] z z [D,,D,] z z [G,,D,] z z [G,,,D,,G,,] | 
[V:1] z z [D,G,=B,] z z [D,G,B,] z z [D,G,B,] z z [D,G,B,] | 
[V:2] z z [G,,,D,,G,,] z z [G,,,D,,G,,] z z [G,,,D,,G,,] z z [G,,,D,,G,,] | 
[V:1] z z [D,G,=B,D] z z [D,G,B,D] z z [D,G,B,D] z z [D,G,B,D] | 
[V:2] z z [G,,,=B,,,D,,G,,] z z [G,,,B,,,D,,G,,] z z [G,,,B,,,D,,G,,] z z [G,,,B,,,D,,G,,] | 
[V:1] z4z2 z2 z z2[K:clef=treble] G, | 
[V:2] z2 G,,,=B,,,2D,, G,,2=B,,D,2 z | 
[V:1] =B,2D G2=B | 
[V:2] z4z2 | 
[V:1]  [K:G] [M:6/8]d6 [I:setbarnb 138]| 
[V:2]  [K:G] [M:6/8]z4z2 | 
[V:1] A6c6 | 
[V:2] z12 | 
[V:1] G6B6 | 
[V:2] z12 | 
[V:1] F6G4A2 | 
[V:2] z12 | 
[V:1] z6g6 & B4>-B4c2B2- | 
[V:2] z12 | 
[V:1] d6f6 & B2A2^G2 A2B2A2- | 
[V:2] z12 | 
[V:1] ^c6e6 & A2=G2F2 G2A2G2- | 
[V:2] z12 | 
[V:1] A6B4^c2 & G2E2F2 G2F2E2 | 
[V:2] z12 | 
[V:1] d2=c2B2A4B2 & F2A2G2- G2=F4 | 
[V:2] z4z2D6 | 
[V:1] c2B2A2- A2G2A2 & E6_E4F2 | 
[V:2] A,6C6 | 
[V:1] B2A2G2-G6 & D4>-D4^C2D2 | 
[V:2] G,6B,6 | 
[V:1] A2B2A2B4=c2- & D4>-D4G4 | 
[V:2] F,4>G,4=F,2_E,2- | 
[V:1] c2B2d2g6 & =F4D2 z2 _e2c2 | 
[V:2] E,2D,2B,,2- B,,2C,2_E,2 | 
[V:1] d6=f6 & B6B6 | 
[V:2] G,2=F,2_E,2 D,2C,2D,2 | 
[V:1] c4d2_e6 & A4B2G6 | 
[V:2] =F,2_E,2D,2 C,2B,,2C,2 | 
[V:1] A4d2-d4c2 & =F4F2-F4_E2 | 
[V:2] _E,2D,2C,2 B,,2C,2F,,2 | 
[V:1] =B4z2z4G2- & D4z2z4z2 | 
[V:2] G,,2C,2A,,2 D,2=B,,2_E,2 | 
[V:1]  [K:Bb] G6c6 & =B,2D2C2 E2D2F2 | 
[V:2]  [K:Bb] D,C,=B,,2 z2z4z2 | 
[V:1] c6A6- & EDC2 z2z4z2 | 
[V:2] C,2F,2E,2 G,2^F,2C2- | 
[V:1] A6d6- & D2G2^F2 A2G2c2 | 
[V:2] CB,A,2 z2 ^F,2B,2A,2 | 
[V:1] d6B6- & BAG2 z2z4z2 | 
[V:2] G,2C2A,2 D2B,2E2 | 
[V:1] B6e6 & z2 D2G2- GFE2 z2 | 
[V:2] DCB,2 z2 z2 G,2C2- | 
[V:1] e6d6 & z2 ^F2c2 cBA2c2 | 
[V:2] CB,A,2-A,G, ^F,2C2A,2 | 
[V:1] d6c6- & =BAG2_A2 G2-G=FE2- | 
[V:2] D2=B,2=F2 EDC2- CB, | 
[V:1] c4=B2 c2f2d2 & EDC2D2 E2_A2F2 | 
[V:2] _A,2-A,G,=F,G,[C,,6C,6]- | 
[V:1] g2=e2_a2- agf2A2 & B2G2c2- cB_A2c2- | 
[V:2] [C,,6C,6][F,,6F,6]- | 
[V:1] c2F2c2- cB=A2 c2 & A2_A2=A2- AG^F2 =a2- | 
[V:2] [F,,6F,6][D,,6D,6]- | 
[V:1] a2^f2b2- bag2 D2- & e2A2d2- dcB2 z2 | 
[V:2] [D,,6D,6][G,,6G,6]- | 
[V:1] D2=B,2G2- G=FE2 B2- & z6z4G2- | 
[V:2] [G,,6G,6][E,,6E,6]- | 
[V:1] B2G2e2- e_dc2 z2 & G2E2c2- cB_A2 F2- | 
[V:2] [E,,6E,6][_A,,6_A,6]- | 
[V:1] z4B2- B2e2 z2 & F2C2 z2z4E2- | 
[V:2] [A,,6A,6][G,,6G,6]- | 
[V:1] z4_A2- A2=d2 z2 & E2 B,2 z2z4=D2- | 
[V:2] [G,,6G,6][F,,6F,6]- | 
[V:1] z4E_A GcB/A/G z2 & D4z2 z2 z2 B,E | 
[V:2] [F,,6F,6][E,,4E,4]z2 | 
[V:1] _A2 z2 z2z4e_a & DGF/E/D z2 GcB/A/G z2 | 
[V:2] z4B,,F, E,_A,G,/F,/E, z2 | 
[V:1] gc'b/_a/g z2 _ge'c'f'e'/_d'/c' & E_AGcB/A/Ge6 | 
[V:2] z12 | 
[V:1] z6fc'be'_d'/c'/b & =A6_d6 | 
[V:2] CF,B,F,=A,/G,/F,z6 | 
[V:1] z6eb_a_d'c'/b/a & G6c6 | 
[V:2] B,E,_A,E,G,/F,/E,z6 | 
[V:1] F6=G4_A2 | 
[V:2] _A,_D,_G,D,F,/E,/D, EB,_DB,C/B,/A, | 
[V:1]  [K:Ab] g=df_df/e/d c2z4 & B6EBGAC_G | 
[V:2]  [K:Ab] z6[A,,,6A,,6] | 
[V:1] A,_GA,=EA,F DFDcDB | 
[V:2] [D,,6D,6][B,,,6B,,6] | 
[V:1] B,AB,^FB,=G EGEBEA | 
[V:2] [E,,6E,6][C,,6C,6] | 
[V:1] =DAGBDA CAB,A=FG | 
[V:2] [F,,6F,6][E,,4E,4][D,,2D,2] | 
[V:1] EAEBEc BeBdcd & z6E6 | 
[V:2] [C,,2C,2][B,,,2B,,2][A,,,2A,,2][G,,,4G,,4]z2[K:clef=treble] | 
[V:1] Bd=BdBc cacbca | 
[V:2] A6F6 | 
[V:1] =dgd=edf _ebec'eb | 
[V:2] B6G6 | 
[V:1] ebegea =dadbdc' | 
[V:2] c6B4A2 | 
[V:1] ec'e=adb d_adfdg | 
[V:2] G6B6- | 
[V:1] dgdedf dgcacb | 
[V:2] B4>-B4A2_G2 | 
[V:1] dbad'be'[A6e6a6] | 
[V:2] F4=G2[K:clef=bass] C,F,E,A,G,A, | 
[V:1] [d6g6d'6][B6g6b6] | 
[V:2] B,,G,E,G,E,G, D,B,E,B,E,B, | 
[V:1] z6_g4e2 & [e6a6e'6][c6c'6] | 
[V:2] C,F,E,A,G,A, E,A,_G,A,=G,A, | 
[V:1] f'6z6 & f4[f2b2][e4b4e'4][d2g2d'2] | 
[V:2] D,A,G,A,=D,A, E,G,E,G,=E,B, | 
[V:1] [c6a6c'6][f6a6]- | 
[V:2] F,CA,C=B,C F,DA,DCD | 
[V:1] [f6a6][e4g4][d2f2] | 
[V:2] D,DA,DCD F,DA,DA,D | 
[V:1] [c6e6][c6-e6c'6-] | 
[V:2] A,ECE=DE A,C=B,CB,C | 
[V:1] [c6f6-c'6][B4f4b4][A2f2a2] | 
[V:2] D,B,F,B,=A,B, =D,B,F,B,D,B, | 
[V:1] [G6e6g6][f6d'6f'6]- | 
[V:2] E,B,G,B,=A,B, E,B,G,B,E,G, | 
[V:1] [f6d'6f'6][e4c'4e'4][d2b2d'2] | 
[V:2] E,G,F,A,G,B, G,B,A,CB,D | 
[V:1] [c6a6c'6][a6=d'6a'6]- | 
[V:2] CEDFCE =B,F=DF=EF | 
[V:1] [a6d'6a'6][a4=d'4g'4][a2d'2f'2] | 
[V:2] =B,F=DF=EF[K:clef=treble] =B,A=DAB,A | 
[V:1] [a6c'6e'6][a4b4f'4][f2a2b2] | 
[V:2] CAEAGA DAFA=DF- | 
[V:1] z6b4[g2b2e'2] & [e4a4c'4]>e4g2e2 | 
[V:2] FED[K:clef=bass]CB,A,- A,G,F,E,=D,E, | 
[V:1] [=d6a6=d'6][_d6b6_d'6] | 
[V:2] F,,F,B,,F,B,,F, G,,G,E,G,E,G, | 
[V:1] e4a2z6 & [c6c'6][f4a4d'4][f2a2b2] | 
[V:2] A,,B,,A,,_G,,F,,E,, D,,A,,F,,A,,=D,,A,, | 
[V:1] [a2c'2]b4z6 & e2 [f2a2][d2g2][c6e6a6] | 
[V:2] E,,E,D,,D,E,,E, A,,,A,,C,,A,,E,,A,, | 
[V:1] [f6a6d'6][d6g6b6] | 
[V:2] A,,,A,,D,,A,,F,,A,, A,,,A,,D,,A,,_F,,A,, | 
[V:1] [e6a6c'6e'6][e6_g6c'6] | 
[V:2] A,,,A,,C,,A,,E,,A,, A,,,A,,E,,A,,_G,,A,, | 
[V:1] [f6d'6f'6][f6_c'6=d'6] | 
[V:2] A,,,A,,D,,A,,F,,A,, A,,,A,,=D,,A,,F,,A,, | 
[V:1] _g'6f'4e'2 & [_g12=c'12] | 
[V:2] A,,,A,,E,,A,,_G,,A,, A,,,A,,E,,A,,G,,A,, | 
[V:1] f'12 & [f6d'6][f6=d'6] | 
[V:2] A,,,A,,D,,A,,F,,A,, A,,,A,,=D,,A,,F,,A,, | 
[V:1] a'6_g'4f'2 & [_c'12=d'12] | 
[V:2] A,,,A,,=D,,A,,F,,A,, A,,,A,,D,,A,,F,,A,, | 
[V:1] [b12d'12_f'12=g'12] | 
[V:2] A,,,=G,,B,,,G,,D,,G,, _F,,G,,D,,G,,B,,,G,, | 
[V:1] [g'6b'6]a'4g'2 & [d'12_f'12] | 
[V:2] A,,,G,,B,,,G,,D,,G,, _F,,G,,D,,G,,B,,,G,, | 
[V:1] [c'e'a'c'']a'e'a'e'c' e'c'ac'ae | 
[V:2] [A,,,4C,,4E,,4A,,4]z2z4z2 | 
[V:1] z4z2z6[K:clef=bass] & cAEAECz6 | 
[V:2] z6A,E,C,E,C,A,, & z6z4z2 | 
[V:1] z2 z A,,C,E, z2 z[K:clef=treble] A,CE | 
[V:2] A,,,C,,E,, z z2 A,,C,E, z z2 | 
[V:1] z2 z Ace z2 z ac'e' | 
[V:2] A,CE z z2[K:clef=treble] Ace z z2[K:clef=bass] | 
[V:1] [a4c'4e'4a'4]z2 |]  
[V:2] [A,,,4C,,4E,,4A,,4]z2 |]  


